resources/icons/cisco/ibmminias400.svg

<?xml version="1.0" encoding="UTF-8"?>
<svg xmlns="http://www.w3.org/2000/svg" xmlns:xlink="http://www.w3.org/1999/xlink" width="136pt" height="200pt" viewBox="0 0 136 200" version="1.1">
<g id="surface1">
<path style=" stroke:none;fill-rule:nonzero;fill:rgb(0.784314%,43.921569%,62.352941%);fill-opacity:1;" d="M 3.808594 194.847656 L 104.40625 194.847656 L 104.40625 33.585938 L 3.808594 33.585938 Z M 3.808594 194.847656 "/>
<path style="fill:none;stroke-width:0.5;stroke-linecap:butt;stroke-linejoin:miter;stroke:rgb(100%,100%,100%);stroke-opacity:1;stroke-miterlimit:4;" d="M 19.960765 6.381328 L 0.728114 6.381328 L 0.728114 37.021055 L 19.960018 37.021055 " transform="matrix(5.230769,0,0,5.263158,0,0)"/>
<path style=" stroke:none;fill-rule:nonzero;fill:rgb(0.784314%,43.921569%,62.352941%);fill-opacity:1;" d="M 104.410156 194.847656 L 136.542969 162.519531 L 136.542969 1.257812 L 44.921875 1.257812 L 3.808594 33.578125 L 104.40625 33.578125 L 104.40625 194.84375 "/>
<path style="fill:none;stroke-width:0.5;stroke-linecap:butt;stroke-linejoin:miter;stroke:rgb(100%,100%,100%);stroke-opacity:1;stroke-miterlimit:4;" d="M 19.960765 37.021055 L 26.103803 30.878711 L 26.103803 0.238984 L 8.588006 0.238984 L 0.728114 6.379844 L 19.960018 6.379844 L 19.960018 37.020312 Z M 19.960765 37.021055 " transform="matrix(5.230769,0,0,5.263158,0,0)"/>
<path style=" stroke:none;fill-rule:nonzero;fill:rgb(0.784314%,43.921569%,62.352941%);fill-opacity:1;" d="M 104.410156 33.585938 L 136.542969 1.261719 "/>
<path style="fill:none;stroke-width:0.5;stroke-linecap:butt;stroke-linejoin:miter;stroke:rgb(100%,100%,100%);stroke-opacity:1;stroke-miterlimit:4;" d="M 19.960765 6.381328 L 26.103803 0.239727 M 1.035041 8.861719 L 19.785271 8.861719 " transform="matrix(5.230769,0,0,5.263158,0,0)"/>
<path style="fill-rule:nonzero;fill:rgb(0.784314%,43.921569%,62.352941%);fill-opacity:1;stroke-width:0.5;stroke-linecap:butt;stroke-linejoin:miter;stroke:rgb(100%,100%,100%);stroke-opacity:1;stroke-miterlimit:4;" d="M 19.941349 9.057656 L 25.95818 2.964297 " transform="matrix(5.230769,0,0,5.263158,0,0)"/>
<path style="fill-rule:nonzero;fill:rgb(0.784314%,43.921569%,62.352941%);fill-opacity:1;stroke-width:0.5;stroke-linecap:butt;stroke-linejoin:miter;stroke:rgb(100%,100%,100%);stroke-opacity:1;stroke-miterlimit:4;" d="M 2.436006 16.362266 L 9.075655 16.362266 L 9.075655 14.799961 L 2.436006 14.799961 Z M 2.436006 16.362266 " transform="matrix(5.230769,0,0,5.263158,0,0)"/>
<path style="fill-rule:nonzero;fill:rgb(0.784314%,43.921569%,62.352941%);fill-opacity:1;stroke-width:0.5;stroke-linecap:butt;stroke-linejoin:miter;stroke:rgb(100%,100%,100%);stroke-opacity:1;stroke-miterlimit:4;" d="M 11.421301 16.362266 L 18.060949 16.362266 L 18.060949 14.799961 L 11.421301 14.799961 Z M 11.421301 16.362266 " transform="matrix(5.230769,0,0,5.263158,0,0)"/>
</g>
</svg>

<svg xmlns="http://www.w3.org/2000/svg" viewBox="0 0 26.25 37.5" height="37.5" width="26.25"><path d="M.728 37.021H19.96V6.381H.728v30.64z" fill="#02709f"/><path d="M19.961 6.381H.728v30.64H19.96" fill="none" stroke="#fff" stroke-width=".5"/><path d="M19.961 37.021l6.143-6.142V.239H8.588L.728 6.38H19.96v30.64" fill="#02709f"/><path d="M19.961 37.021l6.143-6.142V.239H8.588L.728 6.38H19.96v30.64z" fill="none" stroke="#fff" stroke-width=".5"/><path d="M19.961 6.381L26.104.24" fill="#02709f"/><path d="M19.961 6.381L26.104.24M1.035 8.862h18.75" fill="none" stroke="#fff" stroke-width=".5"/><path d="M19.941 9.058l6.017-6.094" fill="#02709f"/><path d="M19.941 9.058l6.017-6.094" fill="none" stroke="#fff" stroke-width=".5"/><path d="M2.436 16.362h6.64V14.8h-6.64v1.562z" fill="#02709f"/><path d="M2.436 16.362h6.64V14.8h-6.64v1.562z" fill="none" stroke="#fff" stroke-width=".5"/><path d="M11.421 16.362h6.64V14.8h-6.64v1.562z" fill="#02709f"/><path d="M11.421 16.362h6.64V14.8h-6.64v1.562z" fill="none" stroke="#fff" stroke-width=".5"/></svg>
